X:1
T:Title
%%score 1 2
L:1/8
Q:1/4=92
M:4/4
K:Ab
V:1 treble nm="Grand Piano, Soprano"
V:2 bass nm="Choir Pad, The Book of Truth"
V:1
 [CE]2 [CE]>[DF] [CE]>[B,D] [A,C]>[CE] | [CA]>[CE] [CA]>[DB] [Ec]2 z2 | [Ee]2 [Ed]2 [Ed][Ed]FG | %3
w: By~Samuel~Mitchell * * * * * *|||
 [Af]2 [Ae]2 [ce][Be]AF | [CE]2 [CE]>[DF] [CE]>[B,D] [A,C]>[CE] | [CA]>[CE] [CA]>[DB] [Ec]2 z2 | %6
w: |||
 [Fd]>[Fc] [FB]>[FA] E2 [Ec]2 | [DB]4 [CA]2 z2 | F2 F>G A>G F2 | A2 B2 c4 | %10
w: ||||
 [Fd]>[Fd] [Fd]>[Fd] [=Ec]2 [GB]2 | [FA]2 [DF]2 [CE]4 | [CE]2 [CE]>[DF] [CE]>[B,D] [A,C]>[CE] | %13
w: |||
 [CA]>[CE] [CA]>[DB] [Ec]2 z2 | [Fd]>[Fc] [FB]>[FA] E2 [Ec]2 | [DB]4 [CA]4- | [CA]4 z4 |] %17
w: ||||
V:2
 [A,,A,]2 [A,,A,]2 [A,,A,]>[A,,E,] [A,,E,]>[A,,A,] | A,>A, A,>A, A,2 z2 | %2
 [E,C]2 [E,B,]2 [E,B,][E,G,]D[K:treble]D | [A,D]2 [A,C]2 [A,E][A,D]CD | %4
 [A,,A,]2 [A,,A,]2 [A,,A,]>[A,,E,] [A,,E,]>[A,,A,] | [A,,A,]>[A,,A,] [A,,A,]>[A,,A,] [A,,A,]2 z2 | %6
 [D,A,]>[D,A,] [D,A,]>[D,A,] [C,A,]2 [A,,A,]2 | [E,G,]4 [A,,A,]2 z2 | F,2 F,>G, A,>G, F,2 | %9
 A,2 B,2 C4 | [B,,B,]>[B,,B,] [B,,B,]>[B,,B,] [C,G,]2 [C,=E,]2 | [D,F,]2 [D,A,]2 [A,,A,]4 | %12
 [A,,A,]2 [A,,A,]2 [A,,A,]>[A,,E,] [A,,E,]>[A,,A,] | [A,,A,]>[A,,A,] [A,,A,]>[A,,A,] [A,,A,]2 z2 | %14
 [D,A,]>[D,A,] [D,A,]>[D,A,] [C,A,]2 [A,,A,]2 | [E,G,]4 [A,,A,]4- | [A,,A,]4 z4 |] %17

